packages/astro-components-stencil/src/icons/forward.svg

<svg width="24" height="24" viewBox="0 0 24 24" fill="none" xmlns="http://www.w3.org/2000/svg">
<path d="M12 8.00002V6.41002C12 5.52002 13.08 5.07002 13.71 5.70002L19.3 11.29C19.69 11.68 19.69 12.31 19.3 12.7L13.71 18.29C13.08 18.92 12 18.48 12 17.59V16H5C4.45 16 4 15.55 4 15V9.00002C4 8.45002 4.45 8.00002 5 8.00002H12Z" fill="black"/>
</svg>

<svg xmlns="http://www.w3.org/2000/svg" viewBox="0 0 24 24"><g xmlns="http://www.w3.org/2000/svg" id="forward" fill-rule="nonzero">
            <path d="M12 8V6.41c0-.89 1.08-1.34 1.71-.71l5.59 5.59c.39.39.39 1.02 0 1.41l-5.59 5.59c-.63.63-1.71.19-1.71-.7V16H5c-.55 0-1-.45-1-1V9c0-.55.45-1 1-1h7z"/>
        </g></svg>
